packages/design-system/site/assets/images/data-entry/img-text-input-help.svg

<?xml version="1.0" encoding="UTF-8" standalone="no"?>
<svg width="346px" height="72px" viewBox="0 0 346 72" version="1.1" xmlns="http://www.w3.org/2000/svg" xmlns:xlink="http://www.w3.org/1999/xlink" xmlns:sketch="http://www.bohemiancoding.com/sketch/ns">
    <!-- Generator: Sketch 3.3.3 (12081) - http://www.bohemiancoding.com/sketch -->
    <title>Rectangle 398 + Rectangle 232 Copy 177 + Rectangle 232 Copy 175 Copy Copy</title>
    <desc>Created with Sketch.</desc>
    <defs></defs>
    <g id="Page-1" stroke="none" stroke-width="1" fill="none" fill-rule="evenodd" sketch:type="MSPage">
        <g id="data-entry" sketch:type="MSArtboardGroup" transform="translate(-751.000000, -1373.000000)">
            <g id="Rectangle-398-+-Rectangle-232-Copy-177-+-Rectangle-232-Copy-175-Copy-Copy" sketch:type="MSLayerGroup" transform="translate(751.000000, 1373.000000)">
                <rect id="Rectangle-398" stroke="#E0E5EE" fill="#FFFFFF" sketch:type="MSShapeGroup" x="0" y="27" width="346" height="45" rx="4"></rect>
                <rect id="Rectangle-232-Copy-177" fill="#A8B8D0" sketch:type="MSShapeGroup" x="30.1435136" y="46" width="128.07352" height="6" rx="4"></rect>
                <path d="M7.5,0 C3.3578125,0 0,3.3578125 0,7.5 C0,11.6421875 3.3578125,15 7.5,15 C11.6421875,15 15,11.6421875 15,7.5 C15,3.3578125 11.6421875,0 7.5,0 L7.5,0 Z M7.5,3.78125 C8.0178125,3.78125 8.4375,4.2009375 8.4375,4.71875 C8.4375,5.2365625 8.0178125,5.65625 7.5,5.65625 C6.9821875,5.65625 6.5625,5.2365625 6.5625,4.71875 C6.5625,4.2009375 6.9821875,3.78125 7.5,3.78125 L7.5,3.78125 Z M9.0625,10.346875 C9.0625,10.5178125 8.9240625,10.625 8.753125,10.625 L7.8125,10.625 L6.875,10.625 L6.246875,10.625 C6.0759375,10.625 5.9375,10.5178125 5.9375,10.346875 L5.9375,9.715625 C5.9375,9.5446875 6.0759375,9.375 6.246875,9.375 L6.253125,9.375 C6.4240625,9.375 6.5625,9.2678125 6.5625,9.096875 L6.5625,7.840625 C6.5625,7.6696875 6.4240625,7.5 6.253125,7.5 L6.246875,7.5 C6.0759375,7.5 5.9375,7.3928125 5.9375,7.221875 L5.9375,6.590625 C5.9375,6.4196875 6.0759375,6.25 6.246875,6.25 L8.128125,6.25 C8.2984375,6.25 8.4375,6.4203125 8.4375,6.590625 L8.4375,9.096875 C8.4375,9.2678125 8.5759375,9.375 8.746875,9.375 L8.753125,9.375 C8.9234375,9.375 9.0625,9.5453125 9.0625,9.715625 L9.0625,10.346875 L9.0625,10.346875 Z" id="Imported-Layers-Copy-2" fill="#4F6A92" sketch:type="MSShapeGroup"></path>
                <rect id="Rectangle-232-Copy-175" fill="#D3DDE7" sketch:type="MSShapeGroup" x="25.1435136" y="4" width="48.0275702" height="6" rx="4"></rect>
            </g>
        </g>
    </g>
</svg>

<svg width="346" height="72" xmlns="http://www.w3.org/2000/svg"><g fill="none" fill-rule="evenodd"><rect stroke="#E0E5EE" fill="#FFF" y="27" width="346" height="45" rx="4"/><rect fill="#A8B8D0" x="30.144" y="46" width="128.074" height="6" rx="4"/><path d="M7.5 0C3.358 0 0 3.358 0 7.5 0 11.642 3.358 15 7.5 15c4.142 0 7.5-3.358 7.5-7.5C15 3.358 11.642 0 7.5 0zm0 3.78c.518 0 .938.42.938.94 0 .517-.42.936-.938.936s-.938-.42-.938-.937c0-.52.42-.94.938-.94zm1.563 6.567c0 .17-.14.278-.31.278H6.247c-.17 0-.31-.107-.31-.278v-.63c0-.172.14-.342.31-.342h.006c.17 0 .31-.107.31-.278V7.84c0-.17-.14-.34-.31-.34h-.006c-.17 0-.31-.107-.31-.278v-.63c0-.172.14-.342.31-.342h1.88c.17 0 .31.17.31.34v2.507c0 .17.14.278.31.278h.006c.17 0 .31.17.31.34v.632z" fill="#4F6A92"/><rect fill="#D3DDE7" x="25.144" y="4" width="48.028" height="6" rx="4"/></g></svg>
